Obsidian/status/16s/indicator-messages.svg

<svg height="16" width="16" xmlns="http://www.w3.org/2000/svg"><path d="m8 0c.552 0 1 .45 1 1 0 .03-.002.07-.006.1 2.29.46 4.006 2.47 4.006 4.9v2 2.5l2 2v.5h-14v-.5l2-2v-4.5c0-2.43 1.715-4.44 4.006-4.9-.004-.03-.006-.07-.006-.1 0-.55.447-1 1-1zm1.728 14c-.356.62-1.015 1-1.728 1-.714 0-1.374-.38-1.731-1z" fill="#d3dae3"/></svg>

<svg xmlns="http://www.w3.org/2000/svg" width="16" height="16" version="1.1">
 <defs>
  <style id="current-color-scheme" type="text/css">
   .ColorScheme-Text { color:#d3dae3; } .ColorScheme-Highlight { color:#5294e2; }
  </style>
 </defs>
 <path style="fill:currentColor" class="ColorScheme-Text" d="M 8,0 C 8.552,0 9,0.45 9,1 9,1.03 8.998,1.07 8.994,1.1 11.284,1.56 13,3.57 13,6 V 8 10.5 L 15,12.5 V 13 H 1 V 12.5 L 3,10.5 V 6 C 3,3.57 4.715,1.56 7.006,1.1 7.002,1.07 7,1.03 7,1 7,0.45 7.447,0 8,0 Z M 9.728,14 C 9.372,14.62 8.713,15 8,15 7.286,15 6.626,14.62 6.269,14 Z"/>
</svg>
